X: 55
T:Missa Lami Baudichon / Agnus Dei
N: Derived from Jos0501e-Missa_Lami_Baudichon-Agnus.krn
C: Josquin des Prez
%%abc-version 2.0
%%abcx-abcm2ps-target-version 5.9.1 (29 Sep 2008)
%%abc-creator hum2abc beta
%%abcx-conversion-date 2019/02/12 16:15:40
%%abc-edited-by Jesse Rodin
%%abc-edited-by Jesse Rodin; Victoria Chang 2012/02/11
%%abcx-initial-encoding-date 2012/02/11/
%%humdrum-veritas 1464553262
%%humdrum-veritas-data 3199058061
%%linebreak <none>
%%barnumbers 0
L: 1/4
M: 3/1
Q: 1/2=120
%%staves [1 2 3 4]
V: 1 clef=treble
V: 2 clef=treble-8
V: 3 clef=treble-8
V: 4 clef=bass
K: C
[V:1] c8c4 | 
[V:2] c8e2f2 | 
[V:3] z12 | 
[V:4] C6B,2A,4 | 
[V:1] B4A6G2 | 
[V:2] g4f6e2 | 
[V:3] z12 | 
[V:4] G,4D,4F,4 | 
[V:1] G4F6E2 | 
[V:2] e4d2d3cA2 | 
[V:3] z12 | 
[V:4] C,4D,4_B,,4 | 
[V:1] E4D6C2 | 
[V:2] G2c2d2B4A2 | 
[V:3] z12 | 
[V:4] C,4G,8 | 
[V:1] C8C4 | 
[V:2] c8z4 | 
[V:3] e8e4 | 
[V:4] C,8C,4 | 
[V:1] F8F4 | 
[V:2] A6_B6 | 
[V:3] d8d4 | 
[V:4] D,8_B,,4 | 
[V:1] E2G4FED4 | 
[V:2] G6A2B4 | 
[V:3] c8z4 | 
[V:4] C,3D,E,2F,2G,4 | 
[V:1] C8C4 | 
[V:2] c12- | 
[V:3] g8g4 | 
[V:4] C,8C,4 | 
[V:1] A4A4A4 | 
[V:2] c8F4 | 
[V:3] f8f4 | 
[V:4] F,8A,3B, | 
[V:1] G2c3de4dc | 
[V:2] z4c8 | 
[V:3] e8z4 | 
[V:4] C4A,2C4B,A, | 
[V:1] B8G4 | 
[V:2] d4G8 | 
[V:3] g8g4 | 
[V:4] G,4E,2G,4F,E, | 
[V:1] A3Bc2d3c_BA | 
[V:2] d3cA2_B3cd2 | 
[V:3] f8f4 | 
[V:4] D,4z4_B,,4 | 
[V:1] G3AB2c2d2f2 | 
[V:2] e2g3fedf2ed | 
[V:3] e8z4 | 
[V:4] C,4z4_B,,4 | 
[V:1] e2g3fe3dc2 | 
[V:2] c12 | 
[V:3] e8e4 | 
[V:4] C,12 | 
[V:1] B2d3cA2B4 | 
[V:2] z2G2A4G4 | 
[V:3] d8d4 | 
[V:4] G,4D,4G,4 | 
[V:1] c12 | 
[V:2] c12 & g12 | 
[V:3] c12 | 
[V:4] C,12 | 
[V:1] [M:2/1]z8 | 
[V:2] [M:2/1]z8 | 
[V:3] [M:2/1]z8 | 
[V:4] [M:2/1]G,6A,2 | 
[V:1] z4G4- | 
[V:2] z8 | 
[V:3] z8 | 
[V:4] B,4C4- | 
[V:1] G2A2B4 | 
[V:2] z8 | 
[V:3] z8 | 
[V:4] C2B,2G,4 | 
[V:1] c6B2 | 
[V:2] c6d2 | 
[V:3] z8 | 
[V:4] A,6B,2 | 
[V:1] G4A4- | 
[V:2] e4f4- | 
[V:3] z8 | 
[V:4] C4F,4- | 
[V:1] A2G2E4 | 
[V:2] f2e2c4 | 
[V:3] z8 | 
[V:4] F,2G,2A,4 | 
[V:1] F6G2 | 
[V:2] d6c2 | 
[V:3] z8 | 
[V:4] D,6E,2 | 
[V:1] A4D4- | 
[V:2] A4B4- | 
[V:3] z8 | 
[V:4] F,4G,4- | 
[V:1] D2E2F4 | 
[V:2] B2c2d4 | 
[V:3] z8 | 
[V:4] G,2F,2D,4 | 
[V:1] G6F2 | 
[V:2] G6A2 | 
[V:3] z8 | 
[V:4] E,6F,2 | 
[V:1] D4C4 | 
[V:2] B4c4- | 
[V:3] z8 | 
[V:4] G,4C,4- | 
[V:1] G8 | 
[V:2] c2B2G4 | 
[V:3] z8 | 
[V:4] C,2D,2E,4 | 
[V:1] A6G2 | 
[V:2] F4c4- | 
[V:3] z8 | 
[V:4] F,6E,2 | 
[V:1] E4D4 | 
[V:2] c4d4- | 
[V:3] z8 | 
[V:4] C,4B,,3C, | 
[V:1] F6GA | 
[V:2] d2c2A4 | 
[V:3] z8 | 
[V:4] D,3E,F,4 | 
[V:1] _B8 | 
[V:2] G4d4- | 
[V:3] z8 | 
[V:4] G,8 | 
[V:1] A4G4 | 
[V:2] d4e4- | 
[V:3] z8 | 
[V:4] F,4C4- | 
[V:1] c8 | 
[V:2] e4c4 | 
[V:3] z8 | 
[V:4] C2B,2A,4 | 
[V:1] B4A4- | 
[V:2] d4f4- | 
[V:3] z8 | 
[V:4] G,4F,4- | 
[V:1] A4G4 | 
[V:2] f4e4 | 
[V:3] z8 | 
[V:4] F,2E,2C,4 | 
[V:1] F6ED | 
[V:2] d8 | 
[V:3] z8 | 
[V:4] D,4_B,,4 | 
[V:1] E8- | 
[V:2] c8- | 
[V:3] z8 | 
[V:4] C,8 | 
[V:1] E8 | 
[V:2] c8 | 
[V:3] z8 | 
[V:4] z8 | 
[V:1] z8 | 
[V:2] z8 | 
[V:3] z8 | 
[V:4] C,6D,2 | 
[V:1] C6D2 | 
[V:2] z8 | 
[V:3] z8 | 
[V:4] E,4F,4 | 
[V:1] E4F4 | 
[V:2] z8 | 
[V:3] z8 | 
[V:4] G,3F,D,4 | 
[V:1] G3FD4 | 
[V:2] z8 | 
[V:3] z8 | 
[V:4] C,4F,4- | 
[V:1] C4F4- | 
[V:2] z8 | 
[V:3] z8 | 
[V:4] F,2G,2A,4 | 
[V:1] F2G2A4 | 
[V:2] z8 | 
[V:3] z8 | 
[V:4] D,6E,2 | 
[V:1] D6E2 | 
[V:2] z8 | 
[V:3] z8 | 
[V:4] F,4G,4 | 
[V:1] F4G4 | 
[V:2] z8 | 
[V:3] z8 | 
[V:4] D,4G,4- | 
[V:1] D4G4- | 
[V:2] z8 | 
[V:3] z8 | 
[V:4] G,2A,2B,4 | 
[V:1] G2A2B4 | 
[V:2] z8 | 
[V:3] z8 | 
[V:4] C4B,2G,2 | 
[V:1] c4B2d2- | 
[V:2] z8 | 
[V:3] z8 | 
[V:4] A,4G,4 | 
[V:1] d2c2A2_B2- | 
[V:2] z8 | 
[V:3] z8 | 
[V:4] D8 | 
[V:1] B2AGF4- | 
[V:2] z8 | 
[V:3] z8 | 
[V:4] D,8 | 
[V:1] F2GA_B4 | 
[V:2] z8 | 
[V:3] z8 | 
[V:4] D4G,4 | 
[V:1] A2_B4A2 | 
[V:2] z8 | 
[V:3] z8 | 
[V:4] D8 | 
[V:1] _B2G2B2A2- | 
[V:2] z8 | 
[V:3] z8 | 
[V:4] G,6F,2 | 
[V:1] A2G4^F2 | 
[V:2] z8 | 
[V:3] z8 | 
[V:4] G,2_B,2A,4 | 
[V:1] G8 | 
[V:2] z8 | 
[V:3] z8 | 
[V:4] G,8 | 
[V:1] z8 | 
[V:2] G6A2 | 
[V:3] z8 | 
[V:4] E,6F,2 | 
[V:1] G6A2 | 
[V:2] B4c4 | 
[V:3] z8 | 
[V:4] G,4C,4 | 
[V:1] B4c4 | 
[V:2] G4c4- | 
[V:3] z8 | 
[V:4] z8 | 
[V:1] G4c4- | 
[V:2] c2d2e4 | 
[V:3] z8 | 
[V:4] z8 | 
[V:1] c2d2e4 | 
[V:2] f4e2c2 | 
[V:3] z8 | 
[V:4] z8 | 
[V:1] f4e2c2 | 
[V:2] d4c4 | 
[V:3] z8 | 
[V:4] z8 | 
[V:1] d4c4 | 
[V:2] z2G2c3d | 
[V:3] z8 | 
[V:4] z8 | 
[V:1] z2G2c2d2 | 
[V:2] e4f4 | 
[V:3] z8 | 
[V:4] z8 | 
[V:1] e4f4 | 
[V:2] e2c2d3c | 
[V:3] z8 | 
[V:4] z8 | 
[V:1] e2c2d3c | 
[V:2] A4z2G2 | 
[V:3] z8 | 
[V:4] z8 | 
[V:1] A4z2G2 | 
[V:2] c2d2e4 | 
[V:3] z8 | 
[V:4] z8 | 
[V:1] c2d2e4 | 
[V:2] f4e2c2 | 
[V:3] z8 | 
[V:4] z4C4 | 
[V:1] f4e2d2- | 
[V:2] d4c2B2 | 
[V:3] z8 | 
[V:4] B,4C2G,2 | 
[V:1] dcc4B2 | 
[V:2] c4d4 | 
[V:3] z8 | 
[V:4] A,4G,4 | 
[V:1] c8- | 
[V:2] c8- | 
[V:3] z8 | 
[V:4] C,2F,4E,D, | 
[V:1] c8 ||  
[V:2] c8 ||  
[V:3] z8 ||  
[V:4] C,8 ||  



